Sources/FrostedUI/Resources/Icons.xcassets/pencil16.imageset/pencil-16.svg

<svg width="16" height="16" viewBox="0 0 16 16" fill="none" xmlns="http://www.w3.org/2000/svg" data-fui-icon="true">
  <path
    d="M11.5734 1C12.4453 1.00003 13.2819 1.34642 13.8986 1.96289L14.0372 2.10156C14.6537 2.71818 15.0001 3.55482 15.0001 4.42676C15 5.31568 14.6399 6.167 14.0021 6.78613L6.27258 14.2881C6.15568 14.4016 6.00455 14.4739 5.8429 14.4941L1.8429 14.9941C1.61336 15.0228 1.38344 14.9438 1.21985 14.7803C1.05627 14.6167 0.977381 14.3868 1.00598 14.1572L1.50598 10.1572L1.5304 10.0381C1.56458 9.92198 1.6269 9.81525 1.71204 9.72754L7.61731 3.64258C7.6495 3.58666 7.6867 3.53218 7.7345 3.48438C7.77765 3.44123 7.82622 3.40641 7.8761 3.37598L9.21399 1.99805C9.83316 1.36014 10.6844 1.0001 11.5734 1ZM2.96301 10.5918L2.6134 13.3857L5.40735 13.0361L10.8976 7.70801L8.29114 5.10156L2.96301 10.5918ZM11.5734 2.5C11.09 2.5001 10.6268 2.6961 10.2902 3.04297L9.33606 4.02441L11.9738 6.66309L12.9572 5.70996C13.304 5.37331 13.5 4.91009 13.5001 4.42676C13.5001 3.95265 13.3118 3.49743 12.9767 3.16211L12.838 3.02344C12.5027 2.68827 12.0475 2.50003 11.5734 2.5Z"
    fill="currentColor"
  />
</svg>

<svg xmlns="http://www.w3.org/2000/svg" width="16" height="16" fill="none" data-fui-icon="true" viewBox="0 0 16 16"><path fill="currentColor" d="M11.573 1a3.3 3.3 0 0 1 2.326.963l.138.139a3.29 3.29 0 0 1-.035 4.684l-7.73 7.502a.75.75 0 0 1-.43.206l-4 .5a.75.75 0 0 1-.836-.837l.5-4 .024-.119a.75.75 0 0 1 .182-.31l5.905-6.085a.8.8 0 0 1 .117-.159.8.8 0 0 1 .142-.108l1.338-1.378A3.3 3.3 0 0 1 11.574 1m-8.61 9.592-.35 2.794 2.794-.35 5.49-5.328-2.606-2.606zm8.61-8.092a1.8 1.8 0 0 0-1.283.543l-.954.981 2.638 2.64.983-.954a1.79 1.79 0 0 0 .02-2.548l-.139-.139a1.8 1.8 0 0 0-1.265-.523"/></svg>
